core/assets/icons/eye.closed.svg

<svg width="24" height="24" viewBox="0 0 24 24" xmlns="http://www.w3.org/2000/svg"><g id="eye=closed"><path id="Vector" d="M9.34203 18.782L7.41103 18.264L8.19803 15.325C7.01999 14.8905 5.92514 14.2573 4.96103 13.453L2.80803 15.607L1.39303 14.192L3.54703 12.039C2.3311 10.5827 1.51411 8.83575 1.17603 6.96899L3.14403 6.60999C3.90303 10.812 7.57903 14 12 14C16.42 14 20.097 10.812 20.856 6.60999L22.824 6.96799C22.4864 8.835 21.6697 10.5824 20.454 12.039L22.607 14.192L21.192 15.607L19.039 13.453C18.0749 14.2573 16.9801 14.8905 15.802 15.325L16.589 18.265L14.658 18.782L13.87 15.842C12.6324 16.0541 11.3677 16.0541 10.13 15.842L9.34203 18.782Z"/></g></svg>

<svg xmlns="http://www.w3.org/2000/svg" width="24" height="24" fill="none"><path fill="#191C22" d="m9.342 18.782-1.931-.518.787-2.939a10.99 10.99 0 0 1-3.237-1.872l-2.153 2.154-1.415-1.415 2.154-2.153a10.957 10.957 0 0 1-2.371-5.07l1.968-.359C3.903 10.812 7.579 14 12 14c4.42 0 8.097-3.188 8.856-7.39l1.968.358a10.957 10.957 0 0 1-2.37 5.071l2.153 2.153-1.415 1.415-2.153-2.154a10.989 10.989 0 0 1-3.237 1.872l.787 2.94-1.931.517-.788-2.94a11.07 11.07 0 0 1-3.74 0l-.788 2.94Z"/></svg>
